public/img/icon-3.svg

<svg height="119" viewBox="0 0 119 119" width="119" xmlns="http://www.w3.org/2000/svg" xmlns:xlink="http://www.w3.org/1999/xlink"><filter id="a" height="112.6%" width="112.6%" x="-6.3%" y="-4.5%"><feOffset dx="0" dy="2" in="SourceAlpha" result="shadowOffsetOuter1"/><feGaussianBlur in="shadowOffsetOuter1" result="shadowBlurOuter1" stdDeviation="2"/><feColorMatrix in="shadowBlurOuter1" result="shadowMatrixOuter1" type="matrix" values="0 0 0 0 0   0 0 0 0 0   0 0 0 0 0  0 0 0 0.142012002 0"/><feMerge><feMergeNode in="shadowMatrixOuter1"/><feMergeNode in="SourceGraphic"/></feMerge></filter><g fill="none" fill-rule="evenodd" filter="url(#a)" transform="translate(4 2)"><circle cx="55.5" cy="55.5" fill="#fff" r="55.5"/><g fill-rule="nonzero" transform="translate(26 20)"><g fill="#9ad14b" transform="translate(29)"><path d="m6.39752326 6.42791469c1.60625581 1.54890995 2.60086046 3.68707111 2.60086046 6.04986731-4.90523256 0-8.8807093-3.82988627-8.8807093-8.55547868 2.4512093 0 4.67205814.95818009 6.27984884 2.50561137z"/><path d="m15.2581512 15.2705024c0 3.3299715-2.8032093 6.0305213-6.25976748 6.0305213 0-1.6649858.69965116-3.1722464 1.83329068-4.2643697 1.1321047-1.0906445 2.6966628-1.7661516 4.4264768-1.7661516z"/><path d="m8.99851163 12.477782c0-3.42670143 1.44099997-6.52895736 3.77312787-8.77419906 2.3305931-2.24524171 5.5507791-3.63494787 9.1077442-3.63494787 0 6.85327962-5.7670697 12.40914693-12.88087207 12.40914693z"/><path d="m7.840058 11.362h2.316651v14.596351h-2.316651z"/></g><path d="m56 40.9400985-22.5815901 14.0599015c-21.7044419-3.4760205-8.3592402-23.0504265-8.3592402-23.0504265 3.1035323-4.2099635 8.1589147-6.9495735 13.8669297-6.9495735 9.1674715.0001234 16.6479256 7.0657904 17.0739006 15.9400985z" fill="#b27214"/><g fill="#995c0d" transform="translate(19 25)"><path d="m18.8533333 15.1104809s1.5473685 4.9775106 7.7784737 6.0258297c6.2311053 1.0483192-11.5636316 7.7538596-11.5636316 7.7538596l-14.9771754-3.7252042 6.67296491-14.6030426"/><path d="m8.1164386 19.0791617c.42171929-9.0170255 6.797-16.46669361 15.2646667-18.47176595-1.3358948-.34688937-2.736386-.53285958-4.1801053-.53285958-8.9359298 0-16.22722807 7.06760851-16.6424386 15.94407663l10.5596842 5.8665149c.1452807.0805829.294.1536383.4451755.2200297z"/></g><path d="m62.2509805 46.2499265-18.1848693 11.3306935c-1.8278745 1.1382325-4.0103738 1.589114-6.1491231 1.2706997l-21.4783683-3.1990531c-1.1048746-.1636433-2.2338743.0803429-3.166624.6859955l-7.19212271 4.6617379-4.05737372-9.8636958-2.02249937-4.916075 4.27149866-2.5920451c1.54262451-.9358965 2.96737407-2.0370381 4.25187366-3.2808748 1.2829996-1.2439598 2.42399928-2.6307378 3.40062398-4.1334708 1.7131244-2.6440462 4.6836235-4.2703743 7.8653725-4.2123352.7244998.0134316 1.4489995.0893384 2.1674993.2321566l2.4542492.4850149 12.4718711 2.464014c1.5501245.3064614 2.5901242 1.6486318 2.5901242 3.1142741 0 .340718-.055875.6889529-.1751249 1.0326283-.5101249 1.4641636-2.0149994 2.3524951-3.5651239 2.1039495l-7.8306226-1.2543107c-.1584999-.0252612-.3154999-.0372141-.4708748-.0372141-1.4776245 0-2.7606241 1.1114926-2.8979991 2.6143489-.137375 1.4938608.9146247 2.8419461 2.4149992 3.0919703l13.8288707 2.3092429c1.2286246.2052934 2.4919992-.0073935 3.5832489-.6010932l10.7482466-5.8580096 3.323624-1.8122751c.5734998-.3124995 1.1953746-.4612324 1.8112494-.4612324 1.2422496 0 2.4542492.6086099 3.166624 1.7096284 1.1183746 1.7272496.5991248 4.0217055-1.1592496 5.1153304z" fill="#ffd3ae"/><path d="m22 32.2440771s-4.8006877 1.78473-6.0006718 6.9189518c-.3974062 1.6999881-1.3301149 3.21697-2.6969269 4.2570536l-11.27591742 8.5799175-2.02648388-5.1379566 4.27991392-2.7090342c1.54566364-.9781371 2.97322008-2.1289776 4.26025027-3.4289533 1.28552723-1.3001046 2.42877471-2.7494733 3.40732351-4.3200305 1.7164995-2.7633823 4.6928507-4.4631129 7.880868-4.4024542.7259272.013909 1.4518543.0932418 2.1716443.2425059z" fill="#e5b48f"/></g></g></svg>

<?xml version="1.0" encoding="UTF-8"?>
<svg width="119px" height="119px" viewBox="0 0 119 119" version="1.1" xmlns="http://www.w3.org/2000/svg" xmlns:xlink="http://www.w3.org/1999/xlink">
    <!-- Generator: Sketch 49.3 (51167) - http://www.bohemiancoding.com/sketch -->
    <title>Group 2</title>
    <desc>Created with Sketch.</desc>
    <defs>
        <filter x="-6.3%" y="-4.5%" width="112.6%" height="112.6%" filterUnits="objectBoundingBox" id="filter-1">
            <feOffset dx="0" dy="2" in="SourceAlpha" result="shadowOffsetOuter1"></feOffset>
            <feGaussianBlur stdDeviation="2" in="shadowOffsetOuter1" result="shadowBlurOuter1"></feGaussianBlur>
            <feColorMatrix values="0 0 0 0 0   0 0 0 0 0   0 0 0 0 0  0 0 0 0.142012002 0" type="matrix" in="shadowBlurOuter1" result="shadowMatrixOuter1"></feColorMatrix>
            <feMerge>
                <feMergeNode in="shadowMatrixOuter1"></feMergeNode>
                <feMergeNode in="SourceGraphic"></feMergeNode>
            </feMerge>
        </filter>
    </defs>
    <g id="Page-1" stroke="none" stroke-width="1" fill="none" fill-rule="evenodd">
        <g id="Home" transform="translate(-616.000000, -649.000000)">
            <g id="Group-2" filter="url(#filter-1)" transform="translate(620.000000, 651.000000)">
                <circle id="Oval-2" fill="#FFFFFF" cx="55.5" cy="55.5" r="55.5"></circle>
                <g id="sprout" transform="translate(26.000000, 20.000000)" fill-rule="nonzero">
                    <g id="Group" transform="translate(29.000000, 0.000000)" fill="#9AD14B">
                        <path d="M6.39752326,6.42791469 C8.00377907,7.97682464 8.99838372,10.1149858 8.99838372,12.477782 C4.09315116,12.477782 0.117674419,8.64789573 0.117674419,3.92230332 C2.56888372,3.92230332 4.78973256,4.88048341 6.39752326,6.42791469 Z" id="Shape"></path>
                        <path d="M15.2581512,15.2705024 C15.2581512,18.6004739 12.4549419,21.3010237 8.99838372,21.3010237 C8.99838372,19.6360379 9.69803488,18.1287773 10.8316744,17.036654 C11.9637791,15.9460095 13.5283372,15.2705024 15.2581512,15.2705024 Z" id="Shape"></path>
                        <path d="M8.99851163,12.477782 C8.99851163,9.05108057 10.4395116,5.94882464 12.7716395,3.70358294 C15.1022326,1.45834123 18.3224186,0.0686350711 21.8793837,0.0686350711 C21.8793837,6.92191469 16.112314,12.477782 8.99851163,12.477782 Z" id="Shape"></path>
                        <rect id="Rectangle-path" x="7.84005814" y="11.362" width="2.31665116" height="14.5963507"></rect>
                    </g>
                    <path d="M56,40.9400985 L33.4184099,55 C11.713968,51.5239795 25.0591697,31.9495735 25.0591697,31.9495735 C28.162702,27.73961 33.2180844,25 38.9260994,25 C48.0935709,25.0001234 55.574025,32.0657904 56,40.9400985 Z" id="Shape" fill="#B27214"></path>
                    <g id="Group" transform="translate(19.000000, 25.000000)" fill="#995C0D">
                        <path d="M18.8533333,15.1104809 C18.8533333,15.1104809 20.4007018,20.0879915 26.631807,21.1363106 C32.8629123,22.1846298 15.0681754,28.8901702 15.0681754,28.8901702 L0.091,25.164966 L6.76396491,10.5619234" id="Shape"></path>
                        <path d="M8.1164386,19.0791617 C8.53815789,10.0621362 14.9134386,2.61246809 23.3811053,0.607395745 C22.0452105,0.260506383 20.6447193,0.0745361702 19.201,0.0745361702 C10.2650702,0.0745361702 2.97377193,7.14214468 2.5585614,16.0186128 L13.1182456,21.8851277 C13.2635263,21.9657106 13.4122456,22.038766 13.5634211,22.1051574 L8.1164386,19.0791617 Z" id="Shape"></path>
                    </g>
                    <path d="M62.2509805,46.2499265 L44.0661112,57.58062 C42.2382367,58.7188525 40.0557374,59.169734 37.9169881,58.8513197 L16.4386198,55.6522666 C15.3337452,55.4886233 14.2047455,55.7326095 13.2719958,56.3382621 L6.07987309,61 L2.02249937,51.1363042 L0,46.2202292 L4.27149866,43.6281841 C5.81412317,42.6922876 7.23887273,41.591146 8.52337232,40.3473093 C9.80637192,39.1033495 10.9473716,37.7165715 11.9239963,36.2138385 C13.6371207,33.5697923 16.6076198,31.9434642 19.7893688,32.0015033 C20.5138686,32.0149349 21.2383683,32.0908417 21.9568681,32.2336599 L24.4111173,32.7186748 L36.8829884,35.1826888 C38.4331129,35.4891502 39.4731126,36.8313206 39.4731126,38.2969629 C39.4731126,38.6376809 39.4172376,38.9859158 39.2979877,39.3295912 C38.7878628,40.7937548 37.2829883,41.6820863 35.7328638,41.4335407 L27.9022412,40.17923 C27.7437413,40.1539688 27.5867413,40.1420159 27.4313664,40.1420159 C25.9537419,40.1420159 24.6707423,41.2535085 24.5333673,42.7563648 C24.3959923,44.2502256 25.447992,45.5983109 26.9483665,45.8483351 L40.7772372,48.157578 C42.0058618,48.3628714 43.2692364,48.1501845 44.3604861,47.5564848 L55.1087327,41.6984752 L58.4323567,39.8862001 C59.0058565,39.5737006 59.6277313,39.4249677 60.2436061,39.4249677 C61.4858557,39.4249677 62.6978553,40.0335776 63.4102301,41.1345961 C64.5286047,42.8618457 64.0093549,45.1563016 62.2509805,46.2499265 Z" id="Shape" fill="#FFD3AE"></path>
                    <path d="M22,32.2440771 C22,32.2440771 17.1993123,34.0288071 15.9993282,39.1630289 C15.601922,40.863017 14.6692133,42.3799989 13.3024013,43.4200825 L2.02648388,52 L0,46.8620434 L4.27991392,44.1530092 C5.82557756,43.1748721 7.253134,42.0240316 8.54016419,40.7240559 C9.82569142,39.4239513 10.9689389,37.9745826 11.9474877,36.4040254 C13.6639872,33.6406431 16.6403384,31.9409125 19.8283557,32.0015712 C20.5542829,32.0154802 21.28021,32.094813 22,32.2440771 Z" id="Shape" fill="#E5B48F"></path>
                </g>
            </g>
        </g>
    </g>
</svg>
